svgs/sharp-regular/refrigerator.svg

<svg xmlns="http://www.w3.org/2000/svg" viewBox="0 0 384 512"><!--! Font Awesome Pro 6.6.0 by @fontawesome - https://fontawesome.com License - https://fontawesome.com/license (Commercial License) Copyright 2024 Fonticons, Inc. --><path d="M336 48l0 112-48 0 0-40 0-24-48 0 0 24 0 40L48 160 48 48l288 0zM240 208l0 136 0 24 48 0 0-24 0-136 48 0 0 256L48 464l0-256 192 0zM48 0L0 0 0 48 0 464l0 48 48 0 288 0 48 0 0-48 0-416 0-48L336 0 48 0z"/></svg>

<svg xmlns="http://www.w3.org/2000/svg" viewBox="0 0 384 512"><!--! Font Awesome Pro 6.4.0 by @fontawesome - https://fontawesome.com License - https://fontawesome.com/license (Commercial License) Copyright 2023 Fonticons, Inc. --><path d="M336 48V160H288V120 96H240v24 40H48V48H336zM240 208V344v24h48V344 208h48V464H48V208H240zM48 0H0V48 464v48H48 336h48V464 48 0H336 48z"/></svg>
